svg/regular/bx-globe.svg

<svg xmlns="http://www.w3.org/2000/svg" width="24" height="24"><path d="M12 2C6.486 2 2 6.486 2 12s4.486 10 10 10 10-4.486 10-10S17.514 2 12 2zm7.931 9h-2.764a14.67 14.67 0 0 0-1.792-6.243A8.013 8.013 0 0 1 19.931 11zM12.53 4.027c1.035 1.364 2.427 3.78 2.627 6.973H9.03c.139-2.596.994-5.028 2.451-6.974.172-.01.344-.026.519-.026.179 0 .354.016.53.027zm-3.842.7C7.704 6.618 7.136 8.762 7.03 11H4.069a8.013 8.013 0 0 1 4.619-6.273zM4.069 13h2.974c.136 2.379.665 4.478 1.556 6.23A8.01 8.01 0 0 1 4.069 13zm7.381 6.973C10.049 18.275 9.222 15.896 9.041 13h6.113c-.208 2.773-1.117 5.196-2.603 6.972-.182.012-.364.028-.551.028-.186 0-.367-.016-.55-.027zm4.011-.772c.955-1.794 1.538-3.901 1.691-6.201h2.778a8.005 8.005 0 0 1-4.469 6.201z"/></svg>

<svg xmlns="http://www.w3.org/2000/svg" width="24" height="24" viewBox="0 0 24 24"><path d="M12,2C6.486,2,2,6.486,2,12s4.486,10,10,10s10-4.486,10-10S17.514,2,12,2z M19.931,11h-2.764 c-0.116-2.165-0.73-4.3-1.792-6.243C17.813,5.898,19.582,8.228,19.931,11z M12.53,4.027c1.035,1.364,2.427,3.78,2.627,6.973H9.03 c0.139-2.596,0.994-5.028,2.451-6.974C11.653,4.016,11.825,4,12,4C12.179,4,12.354,4.016,12.53,4.027z M8.688,4.727 C7.704,6.618,7.136,8.762,7.03,11H4.069C4.421,8.204,6.217,5.857,8.688,4.727z M4.069,13h2.974c0.136,2.379,0.665,4.478,1.556,6.23 C6.174,18.084,4.416,15.762,4.069,13z M11.45,19.973C10.049,18.275,9.222,15.896,9.041,13h6.113 c-0.208,2.773-1.117,5.196-2.603,6.972C12.369,19.984,12.187,20,12,20C11.814,20,11.633,19.984,11.45,19.973z M15.461,19.201 c0.955-1.794,1.538-3.901,1.691-6.201h2.778C19.587,15.739,17.854,18.047,15.461,19.201z"/></svg>
